X: 648
T: Hai tai
%%abc-version 2.0
%%abcx-abcm2ps-target-version 5.9.1 (29 Sep 2008)
%%abc-creator hum2abc beta
%%abcx-conversion-date 2013/10/02 07:52:30
%%abc-edited-by Helmut Schaffrath
%%humdrum-veritas 1242760480
%%humdrum-veritas-data 1274235109
%%continueall 1
%%barnumbers 0
L: 1/8
M: 2/4
K: A
B2B c [I:setbarnb 1]| 
B2F A | 
B3c | 
B2z2 | 
A2A c | 
B2A F | 
E3C | 
E2z2 | 
B c B A | 
B c B A | 
F2F A | 
D4 | 
F E F A | 
E F E D | 
B,3A, | 
B,4 |]  



